packages/foundations/assets/icons/functional/images/maps/navigation_straight_16.svg

<svg width="16" height="16" viewBox="0 0 16 16" fill="none" xmlns="http://www.w3.org/2000/svg">
<g clip-path="url(#clip0_2213_5370)">
<path fill-rule="evenodd" clip-rule="evenodd" d="M8.00002 2.33142C8.18475 2.33142 8.36948 2.39083 8.50333 2.5097L11.8211 5.83261C11.9827 5.96735 12.0635 6.18304 12.0635 6.39873C12.0635 6.85709 11.6864 7.20761 11.2553 7.20761C11.0398 7.20761 10.8243 7.12675 10.6626 6.96494L8.77208 5.07184V12.8559C8.77208 13.2726 8.40822 13.6686 7.95938 13.6686C7.51054 13.6686 7.14668 13.3047 7.14668 12.8559V5.15311L5.33741 6.96494C5.17573 7.12675 4.96021 7.20761 4.74469 7.20761C4.31365 7.20761 3.93652 6.85709 3.93652 6.39873C3.93652 6.18304 4.04428 5.96735 4.17892 5.83261L7.43425 2.57409C7.59593 2.41228 7.81145 2.33142 8.00002 2.33142Z" fill="#1A1C1F"/>
</g>
<defs>
<clipPath id="clip0_2213_5370">
<rect width="16" height="16" fill="white"/>
</clipPath>
</defs>
</svg>

<svg xmlns="http://www.w3.org/2000/svg" width="16" height="16" fill="none"><g clip-path="url(#a)"><path fill="#1A1C1F" fill-rule="evenodd" d="M8 2.331c.185 0 .37.06.503.179l3.318 3.323c.162.134.242.35.242.566a.81.81 0 0 1-.808.809.84.84 0 0 1-.592-.243l-1.89-1.893v7.784a.834.834 0 0 1-.814.813.813.813 0 0 1-.812-.813V5.153l-1.81 1.812a.84.84 0 0 1-.592.243.81.81 0 0 1-.808-.81.84.84 0 0 1 .242-.565l3.255-3.259A.82.82 0 0 1 8 2.331" clip-rule="evenodd"/></g><defs><clipPath id="a"><path fill="#fff" d="M0 0h16v16H0z"/></clipPath></defs></svg>
